X:2354
T:Butterfly
M:9/8
L:1/8
R:Slip Jig
K:GMaj
d2^c|:B2EG2EF3|B2EG2E FGA|B2EG2EF3|B2^cd2B AFD:|:B2ce2fg3|B2cg2e dBA|B
2ce2fg2a|b2ag2e dBA:|:B3B2AG2A|B3BAB dBA|B3B2AG2A|B2dg2e dBA:|


